file-cancel-outline.svg

<svg fill="currentColor" viewBox="0 0 24 24"><path d="m14 2 6 6v12a2 2 0 0 1-2 2H6a2 2 0 0 1-2-2V4a2 2 0 0 1 2-2zm4 18V9h-5V4H6v16zm-6.5-10c2.5 0 4.5 2 4.5 4.5S14 19 11.5 19 7 17 7 14.5 9 10 11.5 10m0 1.5c-.56 0-1.08.15-1.5.42L14.08 16c.27-.42.42-.94.42-1.5a3 3 0 0 0-3-3m-3 3a3 3 0 0 0 3 3c.56 0 1.08-.15 1.5-.42L8.92 13c-.27.42-.42.94-.42 1.5"/></svg>

<svg  viewBox="0 0 24 24" fill="currentColor"><path  d="M14,2L20,8V20A2,2 0 0,1 18,22H6A2,2 0 0,1 4,20V4A2,2 0 0,1 6,2H14M18,20V9H13V4H6V20H18M11.5,10C14,10 16,12 16,14.5C16,17 14,19 11.5,19C9,19 7,17 7,14.5C7,12 9,10 11.5,10M11.5,11.5C10.94,11.5 10.42,11.65 10,11.92L14.08,16C14.35,15.58 14.5,15.06 14.5,14.5A3,3 0 0,0 11.5,11.5M8.5,14.5A3,3 0 0,0 11.5,17.5C12.06,17.5 12.58,17.35 13,17.08L8.92,13C8.65,13.42 8.5,13.94 8.5,14.5Z"/></svg>
